src/pos-icons/jsfiddle.svg

<svg height="24" viewBox="0 0 24 24" width="24" xmlns="http://www.w3.org/2000/svg"><path d="m17.34 13.7c0 1.3-1.11 2.34-2.48 2.34-1.21 0-2.22-1.04-3.11-2l-.25-.25c0-.03-.03-.06-.05-.09-.71-.74-1.49-1.48-2.24-1.48-.89 0-1.61.66-1.61 1.47s.72 1.48 1.61 1.48c.76 0 1.14-.42 1.42-.72l.07-.08c.16-.17.44-.18.61-.02.19.15.19.44.02.61l-.06.07c-.33.35-.92 1-2.06 1-1.37 0-2.48-1.03-2.48-2.34 0-1.29 1.11-2.34 2.48-2.34 1.21 0 2.22 1.06 3.11 2l.24.25c.02.03.04.06.06.09.71.74 1.49 1.48 2.24 1.48.89 0 1.61-.67 1.61-1.48s-.72-1.47-1.61-1.47c-.75 0-1.14.42-1.42.72l-.07.06c-.16.19-.43.2-.61.04-.17-.17-.18-.44-.02-.62l.07-.06c.32-.36.92-1 2.05-1 1.37 0 2.48 1.04 2.48 2.34m4.66 1.15c0 1.11-.43 2.15-1.22 2.94-.78.78-1.83 1.21-2.94 1.21h-11.56c-2.32-.04-4.21-1.94-4.21-4.25 0-1.38.69-2.68 1.82-3.47-.04-.19-.06-.38-.06-.58 0-1.67 1.37-3.03 3.05-3.03.51 0 1 .12 1.44.36 1.09-1.86 3.11-3.03 5.28-3.03 3.37 0 6.1 2.72 6.1 6.07v.07c1.41.7 2.3 2.13 2.3 3.71m-.87 0c0-1.35-.8-2.53-2.04-3.04-.17-.07-.28-.24-.27-.43l.01-.09c0-.07.01-.15.01-.22 0-2.87-2.34-5.2-5.24-5.2-2 0-3.86 1.16-4.73 2.96-.05.12-.16.21-.29.24-.12.03-.26 0-.36-.07-.39-.31-.85-.47-1.34-.47-1.2 0-2.18.97-2.18 2.17 0 .22.03.44.1.64.06.2-.02.41-.19.51-1.05.62-1.67 1.7-1.67 2.9 0 1.84 1.5 3.35 3.35 3.38h11.54c.89 0 1.71-.34 2.33-.96.63-.62.97-1.44.97-2.32z"/></svg>

<?xml version="1.0" encoding="UTF-8"?><!DOCTYPE svg PUBLIC "-//W3C//DTD SVG 1.1//EN" "http://www.w3.org/Graphics/SVG/1.1/DTD/svg11.dtd"><svg xmlns="http://www.w3.org/2000/svg" xmlns:xlink="http://www.w3.org/1999/xlink" version="1.1" id="mdi-jsfiddle" width="24" height="24" viewBox="0 0 24 24"><path d="M17.34 13.7C17.34 15 16.23 16.04 14.86 16.04C13.65 16.04 12.64 15 11.75 14.04L11.5 13.79C11.5 13.76 11.47 13.73 11.45 13.7C10.74 12.96 9.96 12.22 9.21 12.22C8.32 12.22 7.6 12.88 7.6 13.69C7.6 14.5 8.32 15.17 9.21 15.17C9.97 15.17 10.35 14.75 10.63 14.45L10.7 14.37C10.86 14.2 11.14 14.19 11.31 14.35C11.5 14.5 11.5 14.79 11.33 14.96L11.27 15.03C10.94 15.38 10.35 16.03 9.21 16.03C7.84 16.03 6.73 15 6.73 13.69C6.73 12.4 7.84 11.35 9.21 11.35C10.42 11.35 11.43 12.41 12.32 13.35L12.56 13.6C12.58 13.63 12.6 13.66 12.62 13.69C13.33 14.43 14.11 15.17 14.86 15.17C15.75 15.17 16.47 14.5 16.47 13.69C16.47 12.88 15.75 12.22 14.86 12.22C14.11 12.22 13.72 12.64 13.44 12.94L13.37 13C13.21 13.19 12.94 13.2 12.76 13.04C12.59 12.87 12.58 12.6 12.74 12.42L12.81 12.36C13.13 12 13.73 11.36 14.86 11.36C16.23 11.36 17.34 12.4 17.34 13.7M22 14.85C22 15.96 21.57 17 20.78 17.79C20 18.57 18.95 19 17.84 19H6.28C3.96 18.96 2.07 17.06 2.07 14.75C2.07 13.37 2.76 12.07 3.89 11.28C3.85 11.09 3.83 10.9 3.83 10.7C3.83 9.03 5.2 7.67 6.88 7.67C7.39 7.67 7.88 7.79 8.32 8.03C9.41 6.17 11.43 5 13.6 5C16.97 5 19.7 7.72 19.7 11.07L19.7 11.14C21.11 11.84 22 13.27 22 14.85M21.13 14.85C21.13 13.5 20.33 12.32 19.09 11.81C18.92 11.74 18.81 11.57 18.82 11.38L18.83 11.29C18.83 11.22 18.84 11.14 18.84 11.07C18.84 8.2 16.5 5.87 13.6 5.87C11.6 5.87 9.74 7.03 8.87 8.83C8.82 8.95 8.71 9.04 8.58 9.07C8.46 9.1 8.32 9.07 8.22 9C7.83 8.69 7.37 8.53 6.88 8.53C5.68 8.53 4.7 9.5 4.7 10.7C4.7 10.92 4.73 11.14 4.8 11.34C4.86 11.54 4.78 11.75 4.61 11.85C3.56 12.47 2.94 13.55 2.94 14.75C2.94 16.59 4.44 18.1 6.29 18.13H17.83C18.72 18.13 19.54 17.79 20.16 17.17C20.79 16.55 21.13 15.73 21.13 14.85Z" /></svg>
